static/assets/images/networks/polkadot-mono.svg

<svg width="241" height="256" viewBox="0 0 241 256" fill="none" xmlns="http://www.w3.org/2000/svg">
<path d="M120.502 53.6979C146.025 53.6979 166.716 41.6772 166.716 26.849C166.716 12.0207 146.025 0 120.502 0C94.9793 0 74.2888 12.0207 74.2888 26.849C74.2888 41.6772 94.9793 53.6979 120.502 53.6979Z" fill="black"/>
<path d="M120.502 256C146.025 256 166.716 243.979 166.716 229.151C166.716 214.323 146.025 202.302 120.502 202.302C94.9793 202.302 74.2888 214.323 74.2888 229.151C74.2888 243.979 94.9793 256 120.502 256Z" fill="black"/>
<path d="M56.1007 90.8632C68.8622 68.7839 68.7793 44.8706 55.9157 37.4514C43.052 30.0323 22.2787 41.9167 9.5172 63.9961C-3.2443 86.0755 -3.16147 109.989 9.7022 117.408C22.5659 124.827 43.3392 112.943 56.1007 90.8632Z" fill="black"/>
<path d="M231.467 192.002C244.229 169.923 244.153 146.014 231.298 138.6C218.443 131.185 197.677 143.074 184.915 165.153C172.154 187.233 172.23 211.142 185.085 218.556C197.94 225.97 218.706 214.082 231.467 192.002Z" fill="black"/>
<path d="M55.9221 218.55C68.7858 211.131 68.8686 187.217 56.1071 165.138C43.3456 143.059 22.5723 131.174 9.70864 138.593C-3.15504 146.012 -3.23786 169.926 9.52363 192.005C22.2851 214.085 43.0584 225.969 55.9221 218.55Z" fill="black"/>
<path d="M231.309 117.414C244.164 110 244.24 86.0904 231.478 64.0111C218.717 41.9317 197.95 30.0432 185.096 37.4573C172.241 44.8715 172.165 68.7807 184.926 90.86C197.688 112.939 218.454 124.828 231.309 117.414Z" fill="black"/>
</svg>

<svg xmlns="http://www.w3.org/2000/svg" fill="none" viewBox="0 0 241 256"><path fill="#000" d="M120.502 53.698c25.523 0 46.214-12.02 46.214-26.849C166.716 12.021 146.025 0 120.502 0S74.289 12.02 74.289 26.849c0 14.828 20.69 26.849 46.213 26.849m0 202.302c25.523 0 46.214-12.021 46.214-26.849s-20.691-26.849-46.214-26.849-46.213 12.021-46.213 26.849S94.979 256 120.502 256M56.1 90.863c12.762-22.08 12.68-45.992-.184-53.412-12.864-7.419-33.637 4.466-46.399 26.545-12.761 22.08-12.678 45.993.185 53.412s33.637-4.465 46.399-26.545m175.366 101.139c12.762-22.079 12.686-45.988-.169-53.402s-33.621 4.474-46.383 26.553c-12.761 22.08-12.685 45.989.17 53.403s33.621-4.474 46.382-26.554M55.922 218.55c12.864-7.419 12.947-31.333.185-53.412S22.572 131.174 9.71 138.593s-12.947 31.333-.185 53.412 33.534 33.964 46.398 26.545m175.386-101.136c12.855-7.414 12.931-31.324.169-53.403-12.761-22.08-33.528-33.968-46.382-26.554-12.855 7.414-12.931 31.324-.17 53.403 12.762 22.079 33.528 33.968 46.383 26.554"/></svg>
